icons/editor-list-numbers-filled.svg

<svg fill="none" viewBox="0 0 25 24"><path stroke="#000" stroke-linecap="round" stroke-linejoin="round" stroke-width="2" d="M11.1 6h10.8m-10.8 6.5h10.8m-10.6 6.5h10.6m-18.9-3q0-.8.6-1.4.6-.6 1.4-.6.8 0 1.4.6.6.6.6 1.4-.1.8-1 1.5l-3 2.5h4m-2-10v-6l-2 2"/></svg>

<svg fill="none" viewBox="0 0 25 24"><path stroke="#000" stroke-linecap="round" stroke-linejoin="round" stroke-width="2" d="M11.1 6h10.8m-10.8 6.5h10.8M11.3 19h10.6M3 16q0-.8.6-1.4T5 14t1.4.6T7 16t-1 1.5L3 20h4M5 10V4L3 6"/></svg>
